packages/core/assets/Icons/login.svg

<svg viewBox="0 0 20 20" fill="none" xmlns="http://www.w3.org/2000/svg">
<path d="M10.8333 17.5C10.5972 17.5 10.3993 17.4201 10.2396 17.2604C10.0799 17.1007 10 16.9028 10 16.6667C10 16.4306 10.0799 16.2326 10.2396 16.0729C10.3993 15.9132 10.5972 15.8333 10.8333 15.8333H15.8333V4.16667H10.8333C10.5972 4.16667 10.3993 4.08681 10.2396 3.92708C10.0799 3.76736 10 3.56944 10 3.33333C10 3.09722 10.0799 2.89931 10.2396 2.73958C10.3993 2.57986 10.5972 2.5 10.8333 2.5H15.8333C16.2917 2.5 16.684 2.66319 17.0104 2.98958C17.3368 3.31597 17.5 3.70833 17.5 4.16667V15.8333C17.5 16.2917 17.3368 16.684 17.0104 17.0104C16.684 17.3368 16.2917 17.5 15.8333 17.5H10.8333ZM9.3125 10.8333H3.33333C3.09722 10.8333 2.89931 10.7535 2.73958 10.5938C2.57986 10.434 2.5 10.2361 2.5 10C2.5 9.76389 2.57986 9.56597 2.73958 9.40625C2.89931 9.24653 3.09722 9.16667 3.33333 9.16667H9.3125L7.75 7.60417C7.59722 7.45139 7.52083 7.26389 7.52083 7.04167C7.52083 6.81944 7.59722 6.625 7.75 6.45833C7.90278 6.29167 8.09722 6.20486 8.33333 6.19792C8.56944 6.19097 8.77083 6.27083 8.9375 6.4375L11.9167 9.41667C12.0833 9.58333 12.1667 9.77778 12.1667 10C12.1667 10.2222 12.0833 10.4167 11.9167 10.5833L8.9375 13.5625C8.77083 13.7292 8.57292 13.809 8.34375 13.8021C8.11458 13.7951 7.91667 13.7083 7.75 13.5417C7.59722 13.375 7.52431 13.1771 7.53125 12.9479C7.53819 12.7188 7.61806 12.5278 7.77083 12.375L9.3125 10.8333Z" fill="currentColor"/>
</svg>

<svg xmlns="http://www.w3.org/2000/svg" width="20" height="20" fill="none" viewBox="0 0 20 20">
  <path fill="#201F1F" d="M10.833 17.5a.806.806 0 0 1-.593-.24.806.806 0 0 1-.24-.593c0-.236.08-.434.24-.594.16-.16.357-.24.593-.24h5V4.167h-5a.806.806 0 0 1-.593-.24.806.806 0 0 1-.24-.594c0-.236.08-.434.24-.593.16-.16.357-.24.593-.24h5c.459 0 .851.163 1.177.49.327.326.49.718.49 1.177v11.666c0 .459-.163.851-.49 1.177-.326.327-.718.49-1.177.49h-5Zm-1.52-6.667h-5.98a.806.806 0 0 1-.593-.24A.807.807 0 0 1 2.5 10c0-.236.08-.434.24-.594.16-.16.357-.24.593-.24h5.98L7.75 7.605a.765.765 0 0 1-.23-.562c0-.223.077-.417.23-.584a.79.79 0 0 1 .583-.26.788.788 0 0 1 .604.24l2.98 2.979a.8.8 0 0 1 .25.583.8.8 0 0 1-.25.583l-2.98 2.98a.776.776 0 0 1-.593.24.85.85 0 0 1-.594-.261.81.81 0 0 1-.219-.594.814.814 0 0 1 .24-.573l1.542-1.542Z"/>
</svg>
